X: 33669
T: Rambling Pitchfork, The
R: jig
M: 6/8
K: Dmajor
F2F AFF|DFF AFD|~G3 ABc|ded cAG|
F2F AFF|DzF AFD|~G3 BAB|AFD DzD|
~F3 AFF|DzF AFD|~G3 ABc|ded cAG|
F2F AFF|DzF AFD|~G3 BAB|AFD D2|
dcd fed|ecA AFe|dzf fed|(3fgaf gfe|
dzf fed|ecA AFD|~G3 BAB|AFD D2|
dcd fed|ecA AFe|dzf fed|(3fgaf gfe|
dzf fed|ecA AFD|~G3 BzB|AFD D3|

